X:1
T:Title
%%score { 1 | 2 }
L:1/8
M:3/4
K:Eb
V:1 treble nm="Grand Piano"
V:2 bass 
V:1
 z2 z2 z[Q:1/4=92] [G,E] | [B,EG]>[B,FA] [B,GB]3 [CEA] | [B,EG]>[A,DF] [G,E]3 [B,DF] | %3
 [B,EG]>[B,GB] [Ge]3 [Bd] |[M:5/8] [Ac] [GB]3 z |[M:1/8] [GB] |[M:3/4] [Ge]>[Ac] [GB]3 [B,EG] | %7
 [EGB]>[B,EG] [G,E]3 [B,DF] | [B,EG]>[B,EG] [EB]3 [B,EG] |[M:5/8] [A,DF] [G,E]3 z |] %10
V:2
 z2 z2 z E, | E,>E, E,3 A,, | B,,>B,, E,3 B,, | E,>E, [E,B,]3 [G,E] |[M:5/8] [A,E] [E,E]3 z | %5
[M:1/8] [E,E] |[M:3/4] [E,B,]>[E,E] [E,E]3 E, | E,>E, E,3 B,, | E,>E, G,3 E, |[M:5/8] B,, E,3 z |] %10

